X: 1
T: the Burning of the Piper's Hut
R: march
Z: 2014 John Chambers <jc:trillian.mit.edu> from MS by Barbara McOwen dated November 2003
B: Ross Collection v.4
S: Page from Concord Slow Scottish Session collection
M: C|
L: 1/8
K: Bm
%%slurgraces
f2 |\
"Bm"B>c d<e {a}f4 | "Bm"(f>e) f<a  f2 (e>d) | "A"c2 A2 e2 A2 | "A"c>d e<f "F#m"e>A c<A |
"Bm"B>c d<e {a}f4 | (f>e) f<a  f2 (e>d) | "A"c2 A2 "F#m"f2 A2 | "Bm"c2 B2 B2 :|
|: f2 |\
"Bm"B>c d<e {a}f2 B2 | "Bm"a2 B2 {a}f2 (e>d) | "A"c2 A2 e2 A2 | "A"c>d e<f "F#m"e>A c<A |
"Bm"B>c d<e {a}f2 B2 | "Bm"a2 B2 {a}f2 (e>d) | "A"c2 A2 "F#m"f2 A2 | "Bm"c2 B2 B2 :|
